X:20502
T:Tribute to Lennart
R:Hornpipe
C:Lennart Alfredsson
N:Lennart Alfredsson (1958-2018) was a founder member of Eken Morris in Stockholm in 1979.
O:Sweden
Z:Paul Hardy's Possible Tunebook 2022 (see www.paulhardy.net). Creative Commons cc by-nc-sa licenced.
M:4/4
L:1/8
Q:1/4=120
K:G
(3DEF|"G"Gd BG "D"Dc AF|"G"Gg fg "Em"e2 "D"d2|"C"cd ec "G"Bc dB|"D"AG AB "D7"AD EF|
"G"Gd BG "D"Dc AF|"G"Gg fg "Em"e2 "D"d2|"C"cd ec "G"Bc dB|"D7"A2 f2 "G"g2:|
|:(3def|"G"g2 dc BA GB|DG Bd "D"DF Ac|"G"GB dg "C"e2 "D7"(3def|
"G"g2 dc BA GB|DG Bd "D"DF Ac|"C"ed "D7"cF "G"G2:|

